X: 150
T: Cantantibus organis – Larghetto
C: Franciszek Walczyński
%%abc-version 2.0
%%abcx-abcm2ps-target-version 5.9.1 (29 Sep 2008)
%%abc-creator hum2abc beta
%%abcx-conversion-date 2021/10/04 07:38:41
%%abc-edited-by Andrzej Kubiczek
%%abc-edited-by Krzysztof Stępień
%%abcx-initial-encoding-date 2021-08-09
%%humdrum-veritas 2123497113
%%humdrum-veritas-data 3050227208
%%linebreak <none>
%%barnumbers 0
L: 1/4
M: C
N: Derived from pl-kozmzk--mzk-m-346--052_walczynski-franciszek--cantantibus-organis-larghetto.krn
Q: "Larghetto."
%%staves {1 2}
V: 1 clef=treble
V: 2 clef=bass
K: Ab
[V:1] cAB2 & z2G2 | 
[V:2] z2ED | 
[V:1] edB2 & A3G | 
[V:2] CB,E3/D/ | 
[V:1] z2F2 & z2=D2 | 
[V:2] CA,B,A, | 
[V:1] BAG2 & E4- | 
[V:2] G,F,E,_D, | 
[V:1] A=AB=B & E4 | 
[V:2] C,^F,,G,,2 | 
[V:1] cAB2 & E2FG | 
[V:2] A,,C,D,E,/D,/ | 
[V:1] edB2 & A2GF | 
[V:2] C,B,,E,D, | 
[V:1] cAB2 & =EF2G | 
[V:2] C,F,=D,E,/_D,/ | 
[V:1] edB2 & A3G | 
[V:2] C,B,,E,E/D/ | 
[V:1] eafd & A4- | 
[V:2] C2DB, | 
[V:1] cBc2 & AGA2 | 
[V:2] E2A,_G, | 
[V:1] dcB2 & A3G | 
[V:2] F,E,D,E, | 
[V:1] !fermata!A3z & F3x | 
[V:2] !fermata!F,3_F, | 
[V:1] z4 & z4 | 
[V:2] E,A,=F,D, | 
[V:1] z2D2 & z2G,F,/G,/ | 
[V:2] E,2E,,2 | 
[V:1] !fermata!C4 & A,4 |]  
[V:2] !fermata!A,,4 |]  


